Origami/64x64/apps/kupfer.svg

<svg xmlns="http://www.w3.org/2000/svg" width="64" height="64" version="1">
 <path style="opacity:0.2" d="m 4.0507997,32.000415 c -0.0118,0.333995 -0.050799,0.66199 -0.050799,0.999985 C 4.0000004,48.512179 16.487822,61 31.9996,61 47.511378,61 59.9992,48.512179 59.9992,33.0004 c 0,-0.337675 -0.03904,-0.66527 -0.05078,-0.999985 C 59.420428,47.0422 47.172603,59.000029 31.99882,59.000029 16.824637,59.000029 4.5772122,47.0422 4.0492197,32.000415 Z"/>
 <rect style="fill:#a94912" width="55.999" height="55.999" x="-60" y="-60" rx="28" ry="28" transform="matrix(0,-1,-1,0,0,0)"/>
 <path style="opacity:0.2" d="M 31.9996,13.0008 A 11.999828,11.999828 0 0 0 19.999772,25.000629 11.999828,11.999828 0 0 0 28.132455,36.344267 L 30.000429,55 34.000371,55 35.863625,36.347867 A 11.999828,11.999828 0 0 0 43.999508,25.000029 11.999828,11.999828 0 0 0 31.99968,13.0002 Z m 0,1.999972 a 7.9998856,7.9998856 0 0 1 7.999886,7.999885 7.9998856,7.9998856 0 0 1 -7.999886,7.999886 7.9998856,7.9998856 0 0 1 -7.999886,-7.999886 7.9998856,7.9998856 0 0 1 7.999886,-7.999885 z"/>
 <path style="fill:#eda458" d="M 31.9996,12.000715 A 11.999828,11.999828 0 0 0 19.999772,24.000543 11.999828,11.999828 0 0 0 31.9996,36.000372 11.999828,11.999828 0 0 0 43.999428,24.000543 11.999828,11.999828 0 0 0 31.9996,12.000715 Z m 0,1.999971 a 7.9998856,7.9998856 0 0 1 7.999886,7.999886 7.9998856,7.9998856 0 0 1 -7.999886,7.999886 7.9998856,7.9998856 0 0 1 -7.999886,-7.999886 7.9998856,7.9998856 0 0 1 7.999886,-7.999886 z"/>
 <path style="fill:#eda458" d="m 27.999657,34.0004 7.999886,0 -1.999972,19.999714 -3.999942,0 z"/>
 <rect style="opacity:0.2" width="4" height="16" x="37" y="-40" transform="matrix(0,1,-1,0,0,0)"/>
 <rect style="fill:#f56161" width="4" height="16" x="36" y="-40" transform="matrix(0,1,-1,0,0,0)"/>
 <path style="opacity:0.2;fill:#ffffff" d="M 32 4 C 16.488222 4 4 16.488222 4 32 C 4 32.113554 4.0112846 32.224034 4.0175781 32.335938 C 4.3691163 17.134398 16.710946 5 32 5 C 47.289054 5 59.630884 17.134398 59.982422 32.335938 C 59.988797 32.224034 60 32.113554 60 32 C 60 16.488222 47.511778 4 32 4 z"/>
</svg>

<svg width="64" height="64" version="1" xmlns="http://www.w3.org/2000/svg">
 <path d="m4.0507997 32.000415c-0.0118 0.333995-0.050799 0.66199-0.050799 0.999985-3e-7 15.511779 12.487821 27.9996 27.999599 27.9996s27.9996-12.487821 27.9996-27.9996c0-0.337675-0.03904-0.66527-0.05078-0.999985-0.527992 15.041785-12.775817 26.999614-27.9496 26.999614-15.174183 0-27.421608-11.957829-27.9496-26.999614z" style="opacity:.2"/>
 <rect transform="matrix(0,-1,-1,0,0,0)" x="-60" y="-60" width="55.999" height="55.999" rx="28" ry="28" style="fill:#a94912"/>
 <path d="m31.9996 13.0008a11.999828 11.999828 0 0 0 -11.999828 11.999829 11.999828 11.999828 0 0 0 8.132683 11.343638l1.867974 18.655733h3.999942l1.863254-18.652133a11.999828 11.999828 0 0 0 8.135883 -11.347838 11.999828 11.999828 0 0 0 -11.999828 -11.999829zm0 1.999972a7.9998856 7.9998856 0 0 1 7.999886 7.999885 7.9998856 7.9998856 0 0 1 -7.999886 7.999886 7.9998856 7.9998856 0 0 1 -7.999886 -7.999886 7.9998856 7.9998856 0 0 1 7.999886 -7.999885z" style="opacity:.2"/>
 <path d="m31.9996 12.000715a11.999828 11.999828 0 0 0 -11.999828 11.999828 11.999828 11.999828 0 0 0 11.999828 11.999829 11.999828 11.999828 0 0 0 11.999828 -11.999829 11.999828 11.999828 0 0 0 -11.999828 -11.999828zm0 1.999971a7.9998856 7.9998856 0 0 1 7.999886 7.999886 7.9998856 7.9998856 0 0 1 -7.999886 7.999886 7.9998856 7.9998856 0 0 1 -7.999886 -7.999886 7.9998856 7.9998856 0 0 1 7.999886 -7.999886z" style="fill:#eda458"/>
 <path d="m27.999657 34.0004h7.999886l-1.999972 19.999714h-3.999942z" style="fill:#eda458"/>
 <rect transform="rotate(90)" x="37" y="-40" width="4" height="16" style="opacity:.2"/>
 <rect transform="rotate(90)" x="36" y="-40" width="4" height="16" style="fill:#f56161"/>
 <path d="M 32 4 C 16.488222 4 4 16.488222 4 32 C 4 32.113554 4.0112846 32.224034 4.0175781 32.335938 C 4.3691163 17.134398 16.710946 5 32 5 C 47.289054 5 59.630884 17.134398 59.982422 32.335938 C 59.988797 32.224034 60 32.113554 60 32 C 60 16.488222 47.511778 4 32 4 z" style="fill:#ffffff;opacity:.2"/>
</svg>
